src/assets/about/javaCard.svg

<svg width="269" height="84" viewBox="0 0 269 84" fill="none" xmlns="http://www.w3.org/2000/svg">
<g filter="url(#filter0_d_330_327)">
<rect x="5" y="0.432251" width="259" height="72.9327" rx="36.4664" fill="white"/>
</g>
<path d="M115.008 40.392C115.104 40.456 115.408 40.592 115.92 40.8C116.432 41.008 117.032 41.112 117.72 41.112C118.216 41.112 118.616 41.032 118.92 40.872C119.224 40.696 119.448 40.432 119.592 40.08C119.752 39.728 119.856 39.272 119.904 38.712C119.968 38.136 120 37.44 120 36.624V27.96H124.68V36.624C124.68 37.92 124.6 39.096 124.44 40.152C124.296 41.208 123.992 42.12 123.528 42.888C123.064 43.656 122.368 44.248 121.44 44.664C120.512 45.064 119.272 45.264 117.72 45.264C116.984 45.264 116.312 45.176 115.704 45C115.096 44.824 114.536 44.56 114.024 44.208L115.008 40.392ZM130.931 27.96H136.163L141.587 45H136.835L135.803 41.664H131.267L130.259 45H125.483L130.931 27.96ZM135.059 38.544L133.547 32.544L131.963 38.544H135.059ZM144.908 27.96L148.244 39.6L151.532 27.96H156.452L150.572 45H145.916L139.964 27.96H144.908ZM160.298 27.96H165.53L170.954 45H166.202L165.17 41.664H160.634L159.626 45H154.85L160.298 27.96ZM164.426 38.544L162.914 32.544L161.33 38.544H164.426Z" fill="black"/>
<g clip-path="url(#clip0_330_327)">
<path fill-rule="evenodd" clip-rule="evenodd" d="M27 12H77V62H27V12Z" fill="white"/>
<path fill-rule="evenodd" clip-rule="evenodd" d="M47.8481 38.3881C47.8481 38.3881 46.6538 39.083 48.6989 39.3178C51.1772 39.6008 52.443 39.56 55.1732 39.0436C55.1732 39.0436 55.8919 39.4936 56.8953 39.883C50.7733 42.5062 43.0402 39.7312 47.8481 38.3881ZM47.0997 34.9648C47.0997 34.9648 45.76 35.9565 47.8069 36.1682C50.4542 36.4416 52.5439 36.4639 56.1622 35.7677C56.1622 35.7677 56.6618 36.2748 57.4481 36.5518C50.0473 38.7165 41.8047 36.7222 47.0997 34.9648Z" fill="#3174B9"/>
<path fill-rule="evenodd" clip-rule="evenodd" d="M53.4057 29.1572C54.9148 30.8944 53.0101 32.4567 53.0101 32.4567C53.0101 32.4567 56.8403 30.4798 55.0811 28.0034C53.4386 25.695 52.1787 24.5482 58.9985 20.5935C58.9985 20.5935 48.2933 23.2661 53.4057 29.1572Z" fill="#CA3132"/>
<path fill-rule="evenodd" clip-rule="evenodd" d="M61.5022 40.9203C61.5022 40.9203 62.3863 41.6492 60.5285 42.2129C56.9958 43.2829 45.8223 43.6055 42.7187 42.2554C41.6038 41.7698 43.6955 41.0967 44.3536 40.9545C45.04 40.8062 45.4317 40.8331 45.4317 40.8331C44.191 39.9595 37.4122 42.549 41.989 43.2919C54.469 45.3155 64.739 42.3809 61.5022 40.9203ZM48.4228 31.4176C48.4228 31.4176 42.7399 32.7678 46.4106 33.2585C47.961 33.4658 51.0494 33.4181 53.9284 33.1766C56.2806 32.9792 58.6416 32.5569 58.6416 32.5569C58.6416 32.5569 57.8129 32.9125 57.2124 33.3218C51.4406 34.8401 40.2923 34.133 43.502 32.581C46.2158 31.2682 48.4228 31.4176 48.4228 31.4176ZM58.618 37.1157C64.4848 34.0678 61.7723 31.1382 59.8784 31.533C59.4154 31.6298 59.2076 31.7133 59.2076 31.7133C59.2076 31.7133 59.3804 31.443 59.7088 31.3268C63.4547 30.0104 66.335 35.2105 58.501 37.2698C58.5008 37.2698 58.5911 37.1884 58.618 37.1157Z" fill="#3174B9"/>
<path fill-rule="evenodd" clip-rule="evenodd" d="M55.0813 14.2059C55.0813 14.2059 58.3297 17.4564 51.9995 22.4531C46.9228 26.4629 50.842 28.7484 51.9979 31.3608C49.034 28.6872 46.8601 26.3332 48.3184 24.1428C50.4594 20.9276 56.3921 19.3684 55.0813 14.2059Z" fill="#CA3132"/>
<path fill-rule="evenodd" clip-rule="evenodd" d="M49 45.3775C54.6304 45.7375 63.2784 45.1775 63.4836 42.5127C63.4836 42.5127 63.0898 43.5228 58.8298 44.3241C54.0234 45.2288 48.0944 45.1235 44.5791 44.5432C44.5791 44.5432 45.2994 45.1393 49 45.3775Z" fill="#3174B9"/>
<path fill-rule="evenodd" clip-rule="evenodd" d="M63.2233 50.156H63.0521V50.06H63.5141V50.156H63.3429V50.6354H63.2233V50.156ZM64.1452 50.1799H64.1431L63.9729 50.6351H63.8948L63.7257 50.1799H63.7236V50.6351H63.61V50.0598H63.7768L63.9335 50.4668L64.0902 50.0598H64.2554V50.6351H64.1454L64.1452 50.1799ZM48.0772 55.5579C47.5462 56.0181 46.9849 56.277 46.4809 56.277C45.7629 56.277 45.3732 55.8456 45.3732 55.1553C45.3732 54.408 45.7904 53.8612 47.4598 53.8612H48.0769L48.0772 55.5579ZM49.5428 57.2113V52.0929C49.5428 50.7848 48.7967 49.9215 46.9984 49.9215C45.9491 49.9215 45.0293 50.1807 44.2815 50.5109L44.4968 51.4174C45.0858 51.2011 45.8474 51.0006 46.595 51.0006C47.631 51.0006 48.0769 51.4174 48.0769 52.2805V52.9276H47.5592C45.0425 52.9276 43.9069 53.904 43.9069 55.3719C43.9069 56.6367 44.6552 57.3558 46.064 57.3558C46.9696 57.3558 47.6461 56.982 48.2777 56.4349L48.3926 57.2113H49.5428ZM54.4342 57.2113H52.6067L50.4063 50.0517H52.0026L53.3683 54.4513L53.6723 55.7732C54.3613 53.8612 54.8503 51.9202 55.0949 50.0517H56.6471C56.2315 52.4091 55.4829 54.9974 54.4342 57.2113ZM61.4475 55.5579C60.9149 56.0181 60.3536 56.277 59.8506 56.277C59.1326 56.277 58.7435 55.8456 58.7435 55.1553C58.7435 54.408 59.1609 53.8612 60.8293 53.8612H61.4475V55.5579ZM62.9136 57.2113V52.0929C62.9136 50.7848 62.1652 49.9215 60.3686 49.9215C59.3183 49.9215 58.3988 50.1807 57.6509 50.5109L57.8662 51.4174C58.4553 51.2011 59.2185 51.0006 59.9663 51.0006C61.0008 51.0006 61.4472 51.4174 61.4472 52.2805V52.9276H60.9294C58.4125 52.9276 57.2777 53.904 57.2777 55.3719C57.2777 56.6367 58.0245 57.3558 59.4335 57.3558C60.3398 57.3558 61.0153 56.982 61.6485 56.4349L61.7639 57.2113H62.9136ZM42.2999 58.4279C41.8823 59.0382 41.2068 59.5215 40.4683 59.7941L39.7446 58.9417C40.3073 58.653 40.7892 58.1869 41.0136 57.7532C41.2068 57.3667 41.2875 56.8697 41.2875 55.6801V47.5052H42.8452V55.5673C42.8452 57.1584 42.7181 57.8014 42.2999 58.4279Z" fill="#CA3132"/>
</g>
<defs>
<filter id="filter0_d_330_327" x="0" y="0.432251" width="269" height="82.9327" filterUnits="userSpaceOnUse" color-interpolation-filters="sRGB">
<feFlood flood-opacity="0" result="BackgroundImageFix"/>
<feColorMatrix in="SourceAlpha" type="matrix" values="0 0 0 0 0 0 0 0 0 0 0 0 0 0 0 0 0 0 127 0" result="hardAlpha"/>
<feOffset dy="5"/>
<feGaussianBlur stdDeviation="2.5"/>
<feComposite in2="hardAlpha" operator="out"/>
<feColorMatrix type="matrix" values="0 0 0 0 0 0 0 0 0 0 0 0 0 0 0 0 0 0 0.25 0"/>
<feBlend mode="normal" in2="BackgroundImageFix" result="effect1_dropShadow_330_327"/>
<feBlend mode="normal" in="SourceGraphic" in2="effect1_dropShadow_330_327" result="shape"/>
</filter>
<clipPath id="clip0_330_327">
<rect width="50" height="50" fill="white" transform="translate(27 12)"/>
</clipPath>
</defs>
</svg>

<svg xmlns="http://www.w3.org/2000/svg" width="269" height="84" fill="none"><g filter="url(#a)"><rect width="259" height="72.933" x="5" y=".432" fill="#fff" rx="36.466"/></g><path fill="#000" d="M115.008 40.392c.096.064.4.2.912.408.512.208 1.112.312 1.8.312.496 0 .896-.08 1.2-.24.304-.176.528-.44.672-.792.16-.352.264-.808.312-1.368.064-.576.096-1.272.096-2.088V27.96h4.68v8.664c0 1.296-.08 2.472-.24 3.528-.144 1.056-.448 1.968-.912 2.736-.464.768-1.16 1.36-2.088 1.776-.928.4-2.168.6-3.72.6a7.235 7.235 0 0 1-2.016-.264 5.783 5.783 0 0 1-1.68-.792l.984-3.816Zm15.923-12.432h5.232L141.587 45h-4.752l-1.032-3.336h-4.536L130.259 45h-4.776l5.448-17.04Zm4.128 10.584-1.512-6-1.584 6h3.096Zm9.849-10.584 3.336 11.64 3.288-11.64h4.92L150.572 45h-4.656l-5.952-17.04h4.944Zm15.39 0h5.232L170.954 45h-4.752l-1.032-3.336h-4.536L159.626 45h-4.776l5.448-17.04Zm4.128 10.584-1.512-6-1.584 6h3.096Z"/><g fill-rule="evenodd" clip-path="url(#b)" clip-rule="evenodd"><path fill="#fff" d="M27 12h50v50H27V12Z"/><path fill="#3174B9" d="M47.848 38.388s-1.194.695.85.93c2.48.283 3.745.242 6.475-.274 0 0 .719.45 1.722.839-6.122 2.623-13.855-.152-9.047-1.495Zm-.748-3.423s-1.34.991.707 1.203c2.647.274 4.737.296 8.355-.4 0 0 .5.507 1.286.784-7.4 2.165-15.643.17-10.348-1.587Z"/><path fill="#CA3132" d="M53.406 29.157c1.509 1.737-.396 3.3-.396 3.3s3.83-1.977 2.071-4.454c-1.642-2.308-2.902-3.455 3.917-7.41 0 0-10.705 2.673-5.592 8.564Z"/><path fill="#3174B9" d="M61.502 40.92s.884.73-.974 1.293c-3.532 1.07-14.706 1.392-17.81.042-1.114-.485.977-1.158 1.636-1.3.686-.149 1.078-.122 1.078-.122-1.241-.873-8.02 1.716-3.443 2.459 12.48 2.023 22.75-.911 19.513-2.372Zm-13.08-9.502s-5.682 1.35-2.011 1.84c1.55.208 4.638.16 7.517-.081 2.353-.198 4.714-.62 4.714-.62s-.83.355-1.43.765c-5.771 1.518-16.92.811-13.71-.741 2.714-1.313 4.92-1.163 4.92-1.163Zm10.196 5.698c5.867-3.048 3.154-5.978 1.26-5.583-.463.097-.67.18-.67.18s.172-.27.5-.386c3.747-1.317 6.627 3.884-1.207 5.943 0 0 .09-.082.117-.154Z"/><path fill="#CA3132" d="M55.081 14.206s3.249 3.25-3.082 8.247c-5.076 4.01-1.157 6.295-.001 8.908-2.964-2.674-5.138-5.028-3.68-7.218 2.141-3.215 8.074-4.775 6.763-9.937Z"/><path fill="#3174B9" d="M49 45.377c5.63.36 14.278-.2 14.484-2.864 0 0-.394 1.01-4.654 1.811-4.807.905-10.736.8-14.25.22 0 0 .72.595 4.42.834Z"/><path fill="#CA3132" d="M63.223 50.156h-.17v-.096h.461v.096h-.171v.48h-.12v-.48Zm.922.024h-.002l-.17.455h-.078l-.17-.455h-.001v.455h-.114v-.575h.167l.157.407.156-.407h.165v.575h-.11v-.455Zm-16.068 5.378c-.53.46-1.092.719-1.596.719-.718 0-1.108-.431-1.108-1.122 0-.747.417-1.294 2.087-1.294h.617v1.697Zm1.466 1.653v-5.118c0-1.308-.746-2.172-2.545-2.172-1.049 0-1.969.26-2.716.59l.215.906c.589-.216 1.35-.416 2.098-.416 1.036 0 1.482.416 1.482 1.28v.647h-.518c-2.517 0-3.652.976-3.652 2.444 0 1.265.748 1.984 2.157 1.984.906 0 1.582-.374 2.214-.921l.115.776h1.15Zm4.891 0h-1.827l-2.2-7.16h1.596l1.365 4.4.304 1.322c.69-1.912 1.178-3.853 1.423-5.721h1.552c-.416 2.357-1.164 4.945-2.213 7.16Zm7.014-1.653c-.533.46-1.094.719-1.597.719-.718 0-1.108-.431-1.108-1.122 0-.747.418-1.294 2.086-1.294h.618v1.697Zm1.466 1.653v-5.118c0-1.308-.749-2.172-2.545-2.172-1.05 0-1.97.26-2.718.59l.215.906c.59-.216 1.352-.416 2.1-.416 1.035 0 1.481.416 1.481 1.28v.647h-.518c-2.517 0-3.651.976-3.651 2.444 0 1.265.747 1.984 2.156 1.984.906 0 1.581-.374 2.215-.921l.115.776h1.15ZM42.3 58.428c-.418.61-1.093 1.094-1.832 1.366l-.723-.852c.562-.289 1.044-.755 1.269-1.189.193-.386.273-.883.273-2.073v-8.175h1.558v8.062c0 1.591-.127 2.234-.545 2.86Z"/></g><defs><clipPath id="b"><path fill="#fff" d="M27 12h50v50H27z"/></clipPath><filter id="a" width="269" height="82.933" x="0" y=".432" color-interpolation-filters="sRGB" filterUnits="userSpaceOnUse"><feFlood flood-opacity="0" result="BackgroundImageFix"/><feColorMatrix in="SourceAlpha" result="hardAlpha" values="0 0 0 0 0 0 0 0 0 0 0 0 0 0 0 0 0 0 127 0"/><feOffset dy="5"/><feGaussianBlur stdDeviation="2.5"/><feComposite in2="hardAlpha" operator="out"/><feColorMatrix values="0 0 0 0 0 0 0 0 0 0 0 0 0 0 0 0 0 0 0.25 0"/><feBlend in2="BackgroundImageFix" result="effect1_dropShadow_330_327"/><feBlend in="SourceGraphic" in2="effect1_dropShadow_330_327" result="shape"/></filter></defs></svg>
